X:1511
T:Within a Mile of Dublin
R:reel
N:"collected from F. O'Neill"
B:"O'Neill's Dance Music of Ireland, 1511"
T: mile ua baile-a.ta-clia.t.
Z:usually played in D mixolydian (1 sharp) these days.
Z:transcribed by John B. Walsh, walsh@math.ubc.ca 8/23/96
M:C|
L:1/8
K:D
(dB)|ADDE FEFG|A>D ((3DDD) cABG|ADDE FEFG|AdcA GcBc|
ADDE FEFG|A>D ((3DDD) cABG|ADDE FEFG|AdcA G2||
(FG)|Addc AGFG|Adde fdec|Addc AGFG|AB=cA G2 FG|
Addc AGFG|Adde f2 ((3efg)|afge fdec|d=cAF G2||


